pin-outline.svg

<svg fill="currentColor" viewBox="0 0 24 24"><path d="M16 12V4h1V2H7v2h1v8l-2 2v2h5.2v6h1.6v-6H18v-2zm-7.2 2 1.2-1.2V4h4v8.8l1.2 1.2z"/></svg>

<svg  viewBox="0 0 24 24" fill="currentColor"><path  d="M16,12V4H17V2H7V4H8V12L6,14V16H11.2V22H12.8V16H18V14L16,12M8.8,14L10,12.8V4H14V12.8L15.2,14H8.8Z"/></svg>
